www/assets/icons/no_encryption_gmailerrorred.svg

<svg width="24" height="24" viewBox="0 0 24 24" xmlns="http://www.w3.org/2000/svg" fill='currentColor'><path d="M9.60502 5.83984C9.60502 4.12984 10.995 2.73984 12.705 2.73984C14.415 2.73984 15.805 4.12984 15.805 5.83984V7.83984H11.535L20.705 17.0098V9.83984C20.705 8.73984 19.805 7.83984 18.705 7.83984H17.705V5.83984C17.705 3.07984 15.465 0.839844 12.705 0.839844C10.495 0.839844 8.63502 2.28984 7.97502 4.27984L9.60502 5.90984V5.83984ZM2.80502 1.93984L1.39502 3.34984L6.00502 7.96984C5.25502 8.25984 4.70502 8.98984 4.70502 9.83984V19.8398C4.70502 20.9398 5.60502 21.8398 6.70502 21.8398H18.705C19.045 21.8398 19.355 21.7498 19.635 21.5998L21.195 23.1598L22.605 21.7498L2.80502 1.93984ZM12.705 16.8398C11.605 16.8398 10.705 15.9398 10.705 14.8398C10.705 14.2498 10.975 13.7198 11.385 13.3498L14.195 16.1598C13.825 16.5698 13.295 16.8398 12.705 16.8398Z"/></svg>

<svg xmlns="http://www.w3.org/2000/svg" width="24" height="24" viewBox="0 0 24 24" fill='currentColor'><path d="M9.605 5.84c0-1.71 1.39-3.1 3.1-3.1s3.1 1.39 3.1 3.1v2h-4.27l9.17 9.17V9.84c0-1.1-.9-2-2-2h-1v-2c0-2.76-2.24-5-5-5-2.21 0-4.07 1.45-4.73 3.44l1.63 1.63zm-6.8-3.9-1.41 1.41 4.61 4.62c-.75.29-1.3 1.02-1.3 1.87v10c0 1.1.9 2 2 2h12c.34 0 .65-.09.93-.24l1.56 1.56 1.41-1.41zm9.9 14.9c-1.1 0-2-.9-2-2 0-.59.27-1.12.68-1.49l2.81 2.81c-.37.41-.9.68-1.49.68"/></svg>
